!!!COM:	Bach, Johann Sebastian
!!!CDT:	1685/02/21/-1750/07/28/
!!!OTL@@DE:	Werde munter, mein Gem&uuml;te
!!!SCT:	BWV 154/3
!!!PC#:	233
!!!AGN:	chorale
**kern	**kern	**kern	**kern
*ICvox	*ICvox	*ICvox	*ICvox
*Ibass	*Itenor	*Ialto	*Isoprn
*I"Bass	*I"Tenor	*I"Alto	*I"Soprano
*>[A,A,B]	*>[A,A,B]	*>[A,A,B]	*>[A,A,B]
*>norep[A,B]	*>norep[A,B]	*>norep[A,B]	*>norep[A,B]
*>A	*>A	*>A	*>A
*clefF4	*clefGv2	*clefG2	*clefG2
*k[f#c#g#]	*k[f#c#g#]	*k[f#c#g#]	*k[f#c#g#]
*A:	*A:	*A:	*A:
*M4/4	*M4/4	*M4/4	*M4/4
*met(c)	*met(c)	*met(c)	*met(c)
*MM100	*MM100	*MM100	*MM100
=1-	=1-	=1-	=1-
4A	4e	4a	4cc#
4F#	4f#	4a	4dd
4C#	8eL	4g#	4ee
.	8dJ	.	.
4F#	4c#	4a	4ee
=2	=2	=2	=2
4BB	4d	8aL	4dd
.	.	8g#J	.
8C#L	4e	4a	4cc#
8DJ	.	.	.
4E	4e	4g#	4b
4E;	4e;	4g#;	4b;
=3	=3	=3	=3
8AL	4e	4a	4cc#
8G#J	.	.	.
4F#	4f#	4a	4dd
4G#	4B	4b	4ee
4A	8c#L	4a	4cc#
.	8dJ	.	.
=4	=4	=4	=4
4E	8eL	4a	4b
.	8BJ	.	.
4E	8eL	4g#	4b
.	8dJ	.	.
2AA;	2c#;	2e;	2a;
=5:|!	=5:|!	=5:|!	=5:|!
*>B	*>B	*>B	*>B
4E	4e	4g#	4b
8DL	4e	4a#	4cc#
8C#J	.	.	.
8BBL	4f#	4b	4dd
8C#J	.	.	.
8DL	4f#	4b	4dd
8EJ	.	.	.
=6	=6	=6	=6
4F#	8f#L	4b	4cc#
.	8c#J	.	.
4F#	8f#L	4a#	4cc#
.	8eJ	.	.
2BB;	2d;	2f#;	2b;
=7	=7	=7	=7
4B	4d	4f#	4dd
8AL	4c#	4a	4ee
8GJ	.	.	.
8F#L	4d	4a	4ff#
8EJ	.	.	.
4D	4d	4a	4ff#
=8	=8	=8	=8
4A	4d	8aL	4ee
.	.	8eJ	.
4AA	4c#	8aL	4ee
.	.	8gJ	.
2D;	2A;	2f#;	2dd;
=9	=9	=9	=9
8AL	8AL	4e	4cc#
8G#XJ	8BJ	.	.
4F#	4c#	4a	4dd
4G#	4B	8eL	4ee
.	.	8f#J	.
4c#	4e	4g#X	4ee
=10	=10	=10	=10
8F#L	4f#	4a	4dd
8G#J	.	.	.
4A	4e	4a	4cc#
4E	4e	4g#	4b
4E;	4e;	4g#;	4b;
=11	=11	=11	=11
8AL	4e	4a	4cc#
8F#J	.	.	.
8EL	4f#	4a	4dd
8DJ	.	.	.
8C#L	4e	8aL	8eeL
8BBJ	.	8g#J	8ddJ
4AA	4e	4a	4cc#
=12	=12	=12	=12
4E	8eL	4a	4b
.	8BJ	.	.
4E	8eL	4g#	4b
.	8dJ	.	.
2AA;	2c#;	2e;	2a;
==	==	==	==
*-	*-	*-	*-
!!!hum2abc: -Q ''
!!!title: @{PC#}. @{OTL@@DE}
!!!YOR1: 371 vierstimmige Choralges&auml;nge von Johann Sebastian Bach, 
!!!YOR2: 4th ed. by Alfred D&ouml;rffel (Leipzig: Breitkopf und H&auml;rtel, 
!!!YOR2: c.1875). 178 pp. Plate "V.A.10".  reprint: J.S. Bach, 371 Four-Part 
!!!YOR4: Chorales (New York: Associated Music Publishers, Inc., c.1940).
!!!SMS: B&H, 4th ed, Alfred D&ouml;rffel, c.1875, plate V.A.10
!!!EED:  Craig Stuart Sapp
!!!EEV:  2009/05/22
